images/preferences/13.svg

<svg width="83" height="89" viewBox="0 0 83 89" fill="none" xmlns="http://www.w3.org/2000/svg">
<path d="M65.2405 71.6225C75.5736 69.4239 72.8385 43.5055 67.5 33.6133C57.786 15.6133 37.3016 6.53922 15.6587 17.8669C8.22931 21.7554 2.60889 31.0145 7.35399 40.0239C11.8934 48.6419 30.9629 48.7615 38.7376 54.1065C48.918 61.1054 49.3135 75.0115 65.2405 71.6225Z" fill="url(#paint0_linear)"/>
<path d="M55.3653 48.8402L55.3652 48.8403L54.025 50.1801L56.224 57.5612L56.2241 57.5615C56.3407 57.954 56.2335 58.3799 55.943 58.6698L53.9919 60.6209C53.9919 60.621 53.9918 60.621 53.9918 60.6211C53.5126 61.1007 52.7013 61.0378 52.3013 60.491L41.8465 46.2078C41.8465 46.2077 41.8465 46.2077 41.8464 46.2076C41.4818 45.7099 41.5901 45.0113 42.0879 44.6469L42.088 44.6469C42.5855 44.2829 43.2841 44.3908 43.6483 44.8884C43.6483 44.8885 43.6483 44.8885 43.6483 44.8885L53.3337 58.1208L53.8936 57.5611L46.8931 34.0601C44.7946 36.0379 42.5143 38.1167 40.2034 40.182L41.6222 42.1205L41.3509 42.319L41.6222 42.1205C41.9497 42.568 41.8952 43.2045 41.4911 43.5883C41.0081 44.047 40.215 43.979 39.8199 43.4393L39.8199 43.4392L38.5274 41.6729C33.8457 45.8191 29.1853 49.7984 25.7891 52.6638L27.8633 58.0569L55.3653 48.8402ZM55.3653 48.8402C56.4382 47.7668 56.4382 46.0215 55.3653 44.9481L55.3651 44.9479C54.8457 44.429 54.1537 44.1421 53.419 44.1421C53.0269 44.1421 52.6464 44.2239 52.2975 44.3796M55.3653 48.8402L52.2975 44.3796M52.2975 44.3796L52.1675 43.9431L53.6303 42.4799C54.7037 41.4065 54.7038 39.661 53.6303 38.588C52.7631 37.7205 51.4588 37.5563 50.4237 38.0899L48.7081 32.3302C49.4161 31.647 50.0959 30.981 50.7394 30.3376L50.7394 30.3375C52.7388 28.3378 54.3759 26.2109 55.3418 24.3415L55.3418 24.3414C56.1594 22.7587 56.4166 21.5073 56.337 20.5183C56.2569 19.5219 55.8375 18.8232 55.3648 18.3505C54.8924 17.8779 54.1937 17.4585 53.1974 17.3785C52.2084 17.2991 50.9569 17.5564 49.374 18.3739L49.3739 18.374C47.5049 19.3395 45.3776 20.9766 43.3782 22.9764M52.2975 44.3796L15.046 17.7728L15.2936 18.0199L15.0462 17.7725L15.0461 17.7726C15.336 17.4822 15.7614 17.3751 16.1541 17.4916L16.1545 17.4917L23.5357 19.6904L24.8755 18.3506C24.8755 18.3506 24.8755 18.3506 24.8756 18.3505C25.9485 17.2772 27.6944 17.2772 28.7673 18.3505C29.2864 18.8697 29.5732 19.5621 29.5732 20.2964C29.5732 20.6886 29.4915 21.0692 29.3357 21.4182L29.7727 21.5483L31.2359 20.0851C31.2359 20.0851 31.2359 20.0851 31.2359 20.085C32.309 19.0116 34.0544 19.0122 35.1276 20.085L35.1277 20.0851C35.9948 20.9525 36.1591 22.2568 35.6255 23.2917L41.3855 25.0073C42.0686 24.2992 42.7348 23.6198 43.3782 22.9764M43.3782 22.9764L43.6257 23.2239L43.3782 22.9764ZM13.0947 19.724C12.6151 20.2032 12.6779 21.0143 13.2247 21.4144L13.4314 21.1319L13.2248 21.4144L32.0425 35.1884C27.8967 39.8697 23.9174 44.5305 21.052 47.9267L15.6582 45.852L15.6581 45.8519C15.2463 45.6937 14.7799 45.7924 14.4678 46.1045L12.1548 48.4174L12.1547 48.4176C11.7192 48.8537 11.7189 49.5604 12.1548 49.9963L23.7189 61.5604C24.1509 61.9929 24.8662 61.9927 25.2983 61.5605L27.6109 59.248C27.9227 58.9362 28.0223 58.4694 27.8634 58.0572L13.0947 19.724ZM13.0947 19.724L13.3422 19.9715L13.0948 19.7239L13.0947 19.724ZM32.8151 21.6643L32.8152 21.6643C33.0133 21.4661 33.3507 21.4661 33.5489 21.6643C33.751 21.8664 33.751 22.1958 33.5489 22.398L33.3369 22.6099L32.2062 22.273L32.8151 21.6643ZM26.4548 19.9298L26.4549 19.9296C26.6566 19.7278 26.9863 19.7276 27.1885 19.9298C27.3906 20.1319 27.3906 20.4613 27.1885 20.6635L27.0997 20.7521L25.9691 20.4154L26.4548 19.9298ZM44.9574 24.5552L44.9575 24.5552C46.7875 22.7248 48.7742 21.1975 50.399 20.3582L50.3991 20.3582C51.0123 20.0413 51.7068 19.7511 52.3391 19.641C52.9783 19.5296 53.4705 19.6142 53.786 19.9298C54.1015 20.2453 54.1861 20.7374 54.0747 21.3766C53.9644 22.0089 53.6743 22.7035 53.3575 23.3168C52.5183 24.9415 50.9906 26.9278 49.1601 28.7583C40.0828 37.8356 23.7139 51.516 19.9538 54.6372L19.0786 53.7619C22.1994 50.0019 35.8794 33.6333 44.9574 24.5552ZM51.3177 40.1671L51.318 40.1668C51.5194 39.9651 51.8492 39.9649 52.0516 40.1671C52.2497 40.3652 52.2496 40.7025 52.0515 40.9006L51.4424 41.5097L51.1055 40.379L51.3177 40.1671ZM16.1546 19.8222L39.6558 26.8223C37.6779 28.9211 35.599 31.2015 33.5334 33.5124L15.5947 20.3818L16.1546 19.8222ZM14.5235 49.2069L15.5338 48.1969L19.5314 49.7344C18.6714 50.7597 17.9775 51.5924 17.4926 52.1759L14.5235 49.2069ZM23.9814 54.1844L25.5189 58.1819L24.5089 59.1919L21.5399 56.2228C22.1233 55.7382 22.9561 55.0443 23.9814 54.1844ZM53.0523 46.5273C53.2544 46.3252 53.5839 46.3252 53.786 46.5273C53.9881 46.7294 53.9881 47.0589 53.786 47.261L53.3002 47.7467L52.9634 46.6162L53.0523 46.5273Z" fill="white" stroke="white" stroke-width="0.7"/>
<defs>
<linearGradient id="paint0_linear" x1="0" y1="26.0625" x2="92.5641" y2="57.2921" gradientUnits="userSpaceOnUse">
<stop stop-color="#F09642" stop-opacity="0.78"/>
<stop offset="1" stop-color="#F0D542" stop-opacity="0.79"/>
</linearGradient>
</defs>
</svg>

<svg width="83" height="89" fill="none" xmlns="http://www.w3.org/2000/svg"><path d="M65.24 71.623c10.334-2.2 7.599-28.118 2.26-38.01-9.714-18-30.198-27.074-51.841-15.746-7.43 3.888-13.05 13.148-8.305 22.157 4.54 8.618 23.609 8.737 31.384 14.082 10.18 7 10.575 20.905 26.502 17.517Z" fill="url(#a)"/><path d="m55.365 48.84-1.34 1.34 2.199 7.381c.117.393.01.819-.281 1.109l-1.951 1.95v.001c-.48.48-1.29.417-1.69-.13L41.845 46.208a1.117 1.117 0 1 1 1.802-1.32l9.686 13.233.56-.56-7-23.5a347.561 347.561 0 0 1-6.69 6.121l1.418 1.938-.271.199.271-.199a1.123 1.123 0 0 1-.13 1.468 1.124 1.124 0 0 1-1.672-.149l-1.293-1.766a721.36 721.36 0 0 1-12.738 10.99l2.074 5.394 27.502-9.217Zm0 0a2.756 2.756 0 0 0 0-3.892 2.738 2.738 0 0 0-1.946-.806c-.392 0-.773.082-1.121.238m3.067 4.46-3.068-4.46m0 0-.13-.437 1.463-1.463a2.754 2.754 0 0 0 0-3.892 2.753 2.753 0 0 0-3.206-.498l-1.716-5.76c.708-.683 1.388-1.349 2.031-1.992 2-2 3.637-4.127 4.603-5.997.817-1.582 1.075-2.834.995-3.823-.08-.996-.5-1.695-.972-2.168-.473-.472-1.171-.892-2.168-.972-.989-.079-2.24.178-3.823.996-1.87.966-3.996 2.603-5.996 4.602m8.92 21.404L15.045 17.773l.248.247-.248-.247c.29-.29.715-.398 1.108-.281l7.382 2.198 1.34-1.34a2.754 2.754 0 0 1 3.891 0c.52.52.806 1.212.806 1.946 0 .393-.082.773-.237 1.122l.437.13 1.463-1.463a2.755 2.755 0 0 1 3.892 0 2.754 2.754 0 0 1 .498 3.207l5.76 1.715a158.9 158.9 0 0 1 1.992-2.03m0 0 .248.247-.248-.248Zm-30.283-3.253c-.48.48-.417 1.29.13 1.69l.206-.282-.206.282 18.817 13.774a721.39 721.39 0 0 0-10.99 12.739l-5.394-2.075a1.117 1.117 0 0 0-1.19.253l-2.313 2.312a1.117 1.117 0 0 0 0 1.58L23.719 61.56a1.124 1.124 0 0 0 1.58 0l2.312-2.312c.312-.312.411-.779.252-1.19L13.095 19.723Zm0 0 .247.247-.247-.247Zm19.72 1.94a.527.527 0 0 1 .734 0 .52.52 0 0 1 0 .734l-.212.212-1.13-.337.608-.609Zm-6.36-1.734a.52.52 0 0 1 .734.733l-.09.09-1.13-.338.486-.485Zm18.502 4.625c1.83-1.83 3.817-3.357 5.442-4.197.613-.317 1.308-.607 1.94-.717.64-.111 1.132-.027 1.447.289.316.315.4.807.289 1.447-.11.632-.4 1.326-.718 1.94-.839 1.625-2.366 3.61-4.197 5.441-9.077 9.078-25.446 22.758-29.206 25.88l-.875-.876c3.12-3.76 16.8-20.129 25.878-29.207Zm6.36 15.612h.001a.52.52 0 0 1 .734 0 .527.527 0 0 1 0 .734l-.61.609-.337-1.131.213-.212ZM16.156 19.822l23.5 7a349.15 349.15 0 0 0-6.122 6.69l-17.938-13.13.56-.56Zm-1.632 29.385 1.01-1.01 3.998 1.537a698.791 698.791 0 0 0-2.038 2.442l-2.97-2.97Zm9.458 4.977 1.538 3.998-1.01 1.01-2.97-2.97a677.86 677.86 0 0 0 2.442-2.038Zm29.071-7.657a.52.52 0 0 1 .734.734l-.486.486-.337-1.13.09-.09Z" fill="#fff" stroke="#fff" stroke-width=".7"/><defs><linearGradient id="a" x1="0" y1="26.063" x2="92.564" y2="57.292" gradientUnits="userSpaceOnUse"><stop stop-color="#F09642" stop-opacity=".78"/><stop offset="1" stop-color="#F0D542" stop-opacity=".79"/></linearGradient></defs></svg>
